src/images/newch.svg

<svg xmlns="http://www.w3.org/2000/svg" viewBox="0 0 836.27 674.205" width="1115.027" height="898.94" xmlns:v="https://vecta.io/nano"><defs><clipPath id="A"><path d="M0 0h836.27v674.205H0z"/></clipPath></defs><g clip-path="url(#A)"><path d="M244.335 181.394v130.638h-35.206l-56.83-98.827h-.804 0q1.698 26.181 1.698 37.35h0v61.477h-24.752V181.394h34.938l56.741 97.844h.626 0q-1.341-25.466-1.341-36.01h0v-61.834h24.93 0zm108.121 107.763v22.875h-75.238V181.394h75.238v22.696h-47.538v28.684h44.231v22.696h-44.231v33.687h47.538 0zm187.735-107.763l-33.24 130.638h-31.542l-17.693-68.625h0q-.983-3.664-3.351-15.146h0 0q-2.367-11.482-2.725-15.414h0 0q-.536 4.825-2.681 15.503h0 0q-2.144 10.678-3.306 15.236h0l-17.603 68.446h-31.453l-33.329-130.638h27.253L407.23 252.7h0q4.379 19.747 6.345 34.223h0 0q.536-5.093 2.457-15.771h0 0q1.921-10.678 3.619-16.576h0l19.033-73.182h26.181l19.032 73.182h0q1.251 4.915 3.128 15.012h0 0q1.876 10.097 2.859 17.335h0 0q.894-6.97 2.86-17.38h0 0q1.965-10.41 3.574-16.843h0l16.62-71.306h27.253 0z" fill="#560562"/><circle vector-effect="non-scaling-stroke" cx="123" cy="428" r="123" fill="#f2f2f2"/><path d="M20 410c0-67.886 55.114-123 123-123s123 55.114 123 123-55.114 123-123 123S20 477.886 20 410zm47-11.267h144.135v22.534H67v-22.534h0zm83.335-60.801v144.136H127.8V337.932h22.535 0zM127.8 398.733h22.535v22.534H127.8v-22.534z" fill-rule="evenodd" fill="#c82d2d"/><path d="M58 72h108v108H58V72z" fill="#f2f2f2"/><path d="M73 56h108v108H73V56z" fill="#270562"/><path d="M171.858 664.676H330.27v1.875H171.858v-1.875zM234 142H92V0h142v142zm-140-2h138V2H94v138z" fill="#3f3d56"/><path d="M301 275h28v28h-28v-28z" fill="#f2f2f2"/><path d="M307 268h28v28h-28v-28z" fill="#5588cf"/><path d="M362 286h-46v-46h46v46zm-44-2h42v-42h-42v42zm-67 383c-84.364 0-153-68.636-153-153s68.636-153 153-153 153 68.636 153 153-68.636 153-153 153zm0-304c-83.262 0-151 67.738-151 151s67.738 151 151 151 151-67.738 151-151-67.738-151-151-151zm277.857 306.676H687.27v1.875H528.857v-1.875zm149-170H836.27v1.875H677.857v-1.875z" fill="#3f3d56"/><radialGradient id="B" fx=".7" fy=".111" cx=".5" cy=".5" r=".5" gradientTransform="matrix(191.846,34,26.821,120.667,538.41,28.667)" gradientUnits="userSpaceOnUse"><stop offset="1.25%" stop-color="#170b99"/><stop offset="43.75%" stop-color="#270160"/><stop offset="97.91666666666666%" stop-color="#2dc8c3"/></radialGradient><path d="M627.314 58.463h0c-30.181 8.176-47.293 41.957-38.219 75.451l11.528 42.555 13.088-3.545 3.306-17.82 2.377 16.28 84.125-22.789 3.005-16.2 2.161 14.8 9.472-2.566-9.052-33.413c-10.441-38.543-47.06-62.162-81.791-52.754v.001z" fill="url(#B)"/><g fill="#ffb8b8"><path d="M565.5 579.5l13 46-2 17 38-8s-16-27-14-41l-35-14zm172-165l-10 54 33-5L762 407l-24.5 7.5h0z"/><circle vector-effect="non-scaling-stroke" cx="638.5" cy="118.5" r="36"/><path d="M627 145l-2 20-16 9 42 93 32-77-21-16-2-38-33 9h0z"/></g><path d="M656.5 244.5l-40.955-74.181S582.5 172.5 574.5 179.5l16 102-5 13s-41 42-33 133l8 162s29 34 89 0v-181l85-7v22s88-22 90-55l-22.638-39.319c-9.005-15.637-27.573-23.039-44.866-17.886L682.5 333.5l-8-30 8-22s21-16 21-37l6-46-38.899-17.947L656.5 244.5z" fill="#0e0d1c"/><path d="M727.5 236.5l16 39s17 20 20 42l5 26s12 46-7 44l-14-46-3-13-17-28-25.085-47.68L727.5 236.5z" fill="#ffb8b8"/><g fill="#0e0d1c"><path d="M730.5 459.5s28.615 2.807 34.307-10.097L793.5 472.5s51.965 13.917 23 26c-27 11.263-54-.762-54 2 0 0-8-7-17-2s-36 0-35-8 5-37 20-31zm-153 171s28.615 2.807 34.307-10.097L640.5 643.5s52.166 14.409 23 26c-26.972 10.719-53.986-.597-54 2 0 0-8-7-17-2s-36 0-35-8 5-37 20-31z"/></g><path d="M696.5 194.5l13 4 28 42-51 34 10-80z" fill="#20067a"/><linearGradient id="C" x1="614.5" y1="131.5" x2="655.5" y2="74.5" gradientUnits="userSpaceOnUse"><stop offset="0%" stop-color="#86e5ff"/><stop offset="100%" stop-color="#150f91"/></linearGradient><path d="M647.375 70.961c-7.401-5.579-16.706-7.861-25.74-5.414l-1.073.291c-20.686 5.604-32.385 28.865-26.13 51.956h0l6.931-1.878-1.189-8.824 3.949 8.076 41.11-11.136 1.491-8.142 1.092 7.442 8.088-2.191q13.277 26.58-1.036 60.633l13.777-3.732 2.983-16.283 2.183 14.884 26.262-7.114-3.816-34.559c-6.727-24.833-26.861-41.983-48.883-44.009h.001z" fill="url(#C)"/><linearGradient id="D" x1="661.508" y1="61.103" x2="667.333" y2="28.333" gradientUnits="userSpaceOnUse"><stop offset="1.2499999999999956%" stop-color="#160a91"/><stop offset="96.66666666666667%" stop-color="#0cffef"/></linearGradient><circle vector-effect="non-scaling-stroke" cx="656" cy="49" r="18" fill="url(#D)"/><path d="M655 59a17.99 17.99 0 0 1-6.333-34.832 17.99 17.99 0 0 0-10.143 30.844 17.99 17.99 0 0 0 18.81 3.82c-.774.106-1.553.162-2.334.168h0z" fill="#171293"/><ellipse vector-effect="non-scaling-stroke" cx="661.5" cy="120.75" rx="4.5" ry="4.25" fill="#ffb8b8"/><path d="M575 469c-24.755-3.685-54.742-2.828-87 0q20.173-36.99 0-65a360.92 360.92 0 0 0 87 0c-12.389 20.626-11.296 42.384 0 65z" fill="#150f91"/><path d="M563.5 239.5l-3 40s-14 22-17 69l-1 29s-21 41-4 40l16-39 30-87v-42l-21-10z" fill="#ffb8b8"/><path d="M581.5 180.5h-7s-11 7-20 37l-10 31 47 11-10-79z" fill="#270562"/><path d="M518 424h28v28h-28v-28z" fill="#d0cde1"/></g></svg>

<svg xmlns="http://www.w3.org/2000/svg" xmlns:xlink="http://www.w3.org/1999/xlink" style="isolation:isolate" viewBox="0 0 836.27 674.205" width="836.27pt" height="674.205pt"><defs><clipPath id="_clipPath_gXXL16ts9Dtj1Qh4E256xPu4zfOuRoJk"><rect width="836.27" height="674.205"/></clipPath></defs><g clip-path="url(#_clipPath_gXXL16ts9Dtj1Qh4E256xPu4zfOuRoJk)"><path d=" M 244.335 181.394 L 244.335 312.032 L 209.129 312.032 L 152.299 213.205 L 151.495 213.205 L 151.495 213.205 Q 153.193 239.386 153.193 250.555 L 153.193 250.555 L 153.193 312.032 L 128.441 312.032 L 128.441 181.394 L 163.379 181.394 L 220.12 279.238 L 220.746 279.238 L 220.746 279.238 Q 219.405 253.772 219.405 243.228 L 219.405 243.228 L 219.405 181.394 L 244.335 181.394 L 244.335 181.394 Z  M 352.456 289.157 L 352.456 312.032 L 277.218 312.032 L 277.218 181.394 L 352.456 181.394 L 352.456 204.09 L 304.918 204.09 L 304.918 232.774 L 349.149 232.774 L 349.149 255.47 L 304.918 255.47 L 304.918 289.157 L 352.456 289.157 L 352.456 289.157 Z  M 540.191 181.394 L 506.951 312.032 L 475.409 312.032 L 457.716 243.407 L 457.716 243.407 Q 456.733 239.743 454.365 228.261 L 454.365 228.261 L 454.365 228.261 Q 451.998 216.779 451.64 212.847 L 451.64 212.847 L 451.64 212.847 Q 451.104 217.672 448.959 228.35 L 448.959 228.35 L 448.959 228.35 Q 446.815 239.028 445.653 243.586 L 445.653 243.586 L 428.05 312.032 L 396.597 312.032 L 363.268 181.394 L 390.521 181.394 L 407.23 252.7 L 407.23 252.7 Q 411.609 272.447 413.575 286.923 L 413.575 286.923 L 413.575 286.923 Q 414.111 281.83 416.032 271.152 L 416.032 271.152 L 416.032 271.152 Q 417.953 260.474 419.651 254.576 L 419.651 254.576 L 438.684 181.394 L 464.865 181.394 L 483.897 254.576 L 483.897 254.576 Q 485.148 259.491 487.025 269.588 L 487.025 269.588 L 487.025 269.588 Q 488.901 279.685 489.884 286.923 L 489.884 286.923 L 489.884 286.923 Q 490.778 279.953 492.744 269.543 L 492.744 269.543 L 492.744 269.543 Q 494.709 259.133 496.318 252.7 L 496.318 252.7 L 512.938 181.394 L 540.191 181.394 L 540.191 181.394 Z " fill="black"/><circle vector-effect="non-scaling-stroke" cx="123" cy="428" r="123" fill="rgb(242,242,242)"/><path d=" M 20 410 C 20 342.114 75.114 287 143 287 C 210.886 287 266 342.114 266 410 C 266 477.886 210.886 533 143 533 C 75.114 533 20 477.886 20 410 Z  M 67 398.733 L 211.135 398.733 L 211.135 421.267 L 67 421.267 L 67 398.733 L 67 398.733 Z  M 150.335 337.932 L 150.335 482.068 L 127.8 482.068 L 127.8 337.932 L 150.335 337.932 L 150.335 337.932 Z  M 127.8 398.733 L 150.335 398.733 L 150.335 421.267 L 127.8 421.267 L 127.8 398.733 Z " fill-rule="evenodd" fill="darkolivegreen"/><path d=" M 58 72 L 166 72 L 166 180 L 58 180 L 58 72 Z " fill="rgb(242,242,242)"/><path d=" M 73 56 L 181 56 L 181 164 L 73 164 L 73 56 Z " fill="rgb(39,5,98)"/><path d=" M 171.858 664.676 L 330.27 664.676 L 330.27 666.551 L 171.858 666.551 L 171.858 664.676 Z  M 234 142 L 92 142 L 92 0 L 234 0 L 234 142 Z  M 94 140 L 232 140 L 232 2 L 94 2 L 94 140 Z " fill="rgb(63,61,86)"/><path d=" M 301 275 L 329 275 L 329 303 L 301 303 L 301 275 Z " fill="rgb(242,242,242)"/><path d=" M 307 268 L 335 268 L 335 296 L 307 296 L 307 268 Z " fill="rgb(85,136,207)"/><path d=" M 362 286 L 316 286 L 316 240 L 362 240 L 362 286 Z  M 318 284 L 360 284 L 360 242 L 318 242 L 318 284 Z  M 251 667 C 166.636 667 98 598.364 98 514 C 98 429.636 166.636 361 251 361 C 335.364 361 404 429.636 404 514 C 404 598.364 335.364 667 251 667 Z  M 251 363 C 167.738 363 100 430.738 100 514 C 100 597.262 167.738 665 251 665 C 334.262 665 402 597.262 402 514 C 402 430.738 334.262 363 251 363 Z  M 528.857 669.676 L 687.27 669.676 L 687.27 671.551 L 528.857 671.551 L 528.857 669.676 Z  M 677.857 499.676 L 836.27 499.676 L 836.27 501.551 L 677.857 501.551 L 677.857 499.676 Z " fill="rgb(63,61,86)"/><radialGradient id="_rgradient_3" fx="0.6996780781693985" fy="0.11134620799367928" cx="0.5" cy="0.5" r="0.5" gradientTransform="matrix(191.846,34,26.821,120.667,538.41,28.667)" gradientUnits="userSpaceOnUse"><stop offset="1.25%" stop-opacity="1" style="stop-color:rgb(23,11,153)"/><stop offset="43.75%" stop-opacity="1" style="stop-color:rgb(39,1,96)"/><stop offset="97.91666666666666%" stop-opacity="1" style="stop-color:rgb(45,200,195)"/></radialGradient><path d=" M 627.314 58.463 L 627.314 58.463 C 597.133 66.639 580.021 100.42 589.095 133.914 L 600.623 176.469 L 613.711 172.924 L 617.017 155.104 L 619.394 171.384 L 703.519 148.595 L 706.524 132.395 L 708.685 147.195 L 718.157 144.629 L 709.105 111.216 C 698.664 72.673 662.045 49.054 627.314 58.462 L 627.314 58.463 Z " fill="url(#_rgradient_3)"/><g><path d=" M 565.5 579.5 L 578.5 625.5 L 576.5 642.5 L 614.5 634.5 C 614.5 634.5 598.5 607.5 600.5 593.5 L 565.5 579.5 Z  M 737.5 414.5 L 727.5 468.5 L 760.5 463.5 L 762 407 L 737.5 414.5 L 737.5 414.5 Z " fill="rgb(255,184,184)"/><circle vector-effect="non-scaling-stroke" cx="638.5" cy="118.5" r="36" fill="rgb(255,184,184)"/><path d=" M 627 145 L 625 165 L 609 174 L 651 267 L 683 190 L 662 174 L 660 136 L 627 145 L 627 145 Z " fill="rgb(255,184,184)"/></g><path d=" M 656.5 244.5 L 615.545 170.319 C 615.545 170.319 582.5 172.5 574.5 179.5 L 590.5 281.5 L 585.5 294.5 C 585.5 294.5 544.5 336.5 552.5 427.5 C 552.5 427.5 560.5 589.5 560.5 589.5 C 560.5 589.5 589.5 623.5 649.5 589.5 L 649.5 408.5 L 734.5 401.5 L 734.5 423.5 C 734.5 423.5 822.5 401.5 824.5 368.5 L 801.862 329.181 C 792.857 313.544 774.289 306.142 756.996 311.295 L 682.5 333.5 L 674.5 303.5 L 682.5 281.5 C 682.5 281.5 703.5 265.5 703.5 244.5 C 703.5 244.5 709.5 198.5 709.5 198.5 L 670.601 180.553 L 656.5 244.5 Z " fill="rgb(14,13,28)"/><path d=" M 727.5 236.5 L 743.5 275.5 C 743.5 275.5 760.5 295.5 763.5 317.5 L 768.5 343.5 C 768.5 343.5 780.5 389.5 761.5 387.5 C 761.5 387.5 747.5 341.5 747.5 341.5 L 744.5 328.5 L 727.5 300.5 L 702.415 252.82 L 727.5 236.5 Z " fill="rgb(255,184,184)"/><g><path d=" M 730.5 459.5 C 730.5 459.5 759.115 462.307 764.807 449.403 L 793.5 472.5 C 793.5 472.5 845.465 486.417 816.5 498.5 C 789.5 509.763 762.5 497.738 762.5 500.5 C 762.5 500.5 754.5 493.5 745.5 498.5 C 736.5 503.5 709.5 498.5 710.5 490.5 C 711.5 482.5 715.5 453.5 730.5 459.5 Z " fill="azure"/><path d=" M 577.5 630.5 C 577.5 630.5 606.115 633.307 611.807 620.403 L 640.5 643.5 C 640.5 643.5 692.666 657.909 663.5 669.5 C 636.528 680.219 609.514 668.903 609.5 671.5 C 609.5 671.5 601.5 664.5 592.5 669.5 C 583.5 674.5 556.5 669.5 557.5 661.5 C 558.5 653.5 562.5 624.5 577.5 630.5 Z " fill="azure"/><path d=" M 696.5 194.5 L 709.5 198.5 L 737.5 240.5 L 686.5 274.5 L 696.5 194.5 Z " fill="black"/><linearGradient id="_lgradient_8" x1="0.20268284298181796" y1="0.6885487755313494" x2="0.5846959099990405" y2="0.10214728984014632" gradientTransform="matrix(107.326,0,0,97.203,592.747,64.571)" gradientUnits="userSpaceOnUse"><stop offset="0%" stop-opacity="1" style="stop-color:rgb(134,229,255)"/><stop offset="100%" stop-opacity="1" style="stop-color:rgb(21,15,145)"/></linearGradient><path d=" M 647.375 70.961 C 639.974 65.382 630.669 63.1 621.635 65.547 L 620.562 65.838 C 599.876 71.442 588.177 94.703 594.432 117.794 L 594.432 117.794 L 601.363 115.916 L 600.174 107.092 L 604.123 115.168 L 645.233 104.032 L 646.724 95.89 L 647.816 103.332 L 655.904 101.141 Q 669.181 127.721 654.868 161.774 L 668.645 158.042 L 671.628 141.759 L 673.811 156.643 L 700.073 149.529 L 696.257 114.97 C 689.53 90.137 669.396 72.987 647.374 70.961 L 647.375 70.961 Z " fill="url(#_lgradient_8)"/><linearGradient id="_lgradient_9" x1="0.6530121894045952" y1="0.8362048757618378" x2="0.8148148148148135" y2="-0.07407407407407363" gradientTransform="matrix(36,0,0,36,638,31)" gradientUnits="userSpaceOnUse"><stop offset="1.2499999999999956%" stop-opacity="1" style="stop-color:rgb(22,10,145)"/><stop offset="96.66666666666667%" stop-opacity="1" style="stop-color:rgb(12,255,239)"/></linearGradient><circle vector-effect="non-scaling-stroke" cx="656" cy="49" r="18" fill="url(#_lgradient_9)"/><path d=" M 655 59 C 646.302 59.005 638.847 52.786 637.291 44.228 C 635.735 35.67 640.524 27.225 648.667 24.168 C 641.791 25.051 636.035 29.806 633.869 36.392 C 631.704 42.977 633.514 50.22 638.524 55.012 C 643.534 59.803 650.852 61.289 657.334 58.832 C 656.56 58.938 655.781 58.994 655 59 L 655 59 Z " fill="rgb(23,18,147)"/></g><ellipse vector-effect="non-scaling-stroke" cx="661.5" cy="120.74999999999997" rx="4.5" ry="4.250000000000043" fill="rgb(255,184,184)"/><path d=" M 575 469 C 550.245 465.315 520.258 466.172 488 469 Q 508.173 432.01 488 404 C 516.894 407.508 546.106 407.508 575 404 C 562.611 424.626 563.704 446.384 575 469 Z " fill="cyan"/><path d=" M 563.5 239.5 L 560.5 279.5 C 560.5 279.5 546.5 301.5 543.5 348.5 L 542.5 377.5 C 542.5 377.5 521.5 418.5 538.5 417.5 C 538.5 417.5 554.5 378.5 554.5 378.5 L 584.5 291.5 L 584.5 249.5 L 563.5 239.5 Z " fill="rgb(255,184,184)"/><path d=" M 581.5 180.5 L 574.5 180.5 C 574.5 180.5 563.5 187.5 554.5 217.5 C 554.5 217.5 544.5 248.5 544.5 248.5 L 591.5 259.5 L 581.5 180.5 Z " fill="black"/><path d=" M 518 424 L 546 424 L 546 452 L 518 452 L 518 424 Z " fill="rgb(208,205,225)"/></g></svg>
